X:170
T:Master Crowley's
M:4/4
L:1/8
R:reel
N:Learned from Kira Ott
Z:Michael Abraham Shulman
N:Check the ending, and the C#/C='s.
K:Em
|:B,E~E2 B,EGE|FDA,D FDA,D|CEGE CEGE|FAdA FEE2|
B,E~E2 B,EGE|FDA,D FDA,D|CEGE CEGE|FAdA FEE2:|
|:ebab fgeg|fdad bdad|ebab fgeg|fdAc BEE2|
ebab fgeg|fdad bdad|EFGA B2dB|AFDE FEE2:|
%%text Variations on the A part, in order.
B,E~E2 B,EGE|FDA,D FDA,D|CEGE CEGE|FAdA FEE2|
B,EED EFGE|FDA,D FDA,D|CEGE CEGE|FAdA FEE2|
B,E~E2 A,E^CE|FDA,D FDA,D|CEGE CEGE|FAdA FEE2|
B,EED E2GE|FDA,_A, =A,DFD|CEGE CEGE|FAdA FEE2|
B,E~E2 B,EGE|FDA,D FDA,D|CEGE CEGE|FAdA FEE2|
B,E~E2 A,E^CE|FDA,D FDA,D|CEGE CEGE|FAdA FEE2|
B,EED E2GE|FDA,D FDA,D|CEGE CEGE|FAdA FEE2|
B,E~E2 A,E~E2|FDA,D FDA,D|CEGE CEGE|FAdA FEE2|
